public/icons/social-media/linkedin.svg

<svg width="100" height="100" viewBox="0 0 100 100" fill="none" xmlns="http://www.w3.org/2000/svg">
<rect width="100" height="100" rx="30" fill="url(#paint0_linear_9_27)"/>
<g opacity="0.25" filter="url(#filter0_f_9_27)">
<rect x="15.0655" y="50" width="68.1223" height="42.5764" rx="21.2882" fill="url(#paint1_linear_9_27)"/>
</g>
<rect x="13" y="12.9999" width="73.7991" height="73.7991" rx="30" fill="url(#paint2_linear_9_27)"/>
<g filter="url(#filter1_i_9_27)">
<path d="M38.6979 67.6564V42.9229H30.4841V67.6564H38.6987H38.6979ZM34.5927 39.5466C37.4564 39.5466 39.2393 37.6473 39.2393 35.2738C39.1857 32.8462 37.4564 31 34.6472 31C31.836 31 30 32.8462 30 35.2736C30 37.6471 31.7822 39.5464 34.5389 39.5464H34.5921L34.5927 39.5466ZM43.2443 67.6564H51.4574V53.8456C51.4574 53.1074 51.511 52.3672 51.728 51.8399C52.3215 50.3624 53.6729 48.8329 55.9425 48.8329C58.9138 48.8329 60.1031 51.1008 60.1031 54.4261V67.6564H68.316V53.475C68.316 45.8782 64.2645 42.3431 58.8606 42.3431C54.4302 42.3431 52.4844 44.8215 51.4033 46.5096H51.458V42.9238H43.2447C43.3519 45.2441 43.2441 67.6573 43.2441 67.6573L43.2443 67.6564Z" fill="white"/>
</g>
<defs>
<filter id="filter0_f_9_27" x="9.60551" y="44.54" width="79.0423" height="53.4964" filterUnits="userSpaceOnUse" color-interpolation-filters="sRGB">
<feFlood flood-opacity="0" result="BackgroundImageFix"/>
<feBlend mode="normal" in="SourceGraphic" in2="BackgroundImageFix" result="shape"/>
<feGaussianBlur stdDeviation="2.73" result="effect1_foregroundBlur_9_27"/>
</filter>
<filter id="filter1_i_9_27" x="27" y="27" width="45" height="45.5" filterUnits="userSpaceOnUse" color-interpolation-filters="sRGB">
<feFlood flood-opacity="0" result="BackgroundImageFix"/>
<feBlend mode="normal" in="SourceGraphic" in2="BackgroundImageFix" result="shape"/>
<feColorMatrix in="SourceAlpha" type="matrix" values="0 0 0 0 0 0 0 0 0 0 0 0 0 0 0 0 0 0 127 0" result="hardAlpha"/>
<feOffset dy="0.5"/>
<feGaussianBlur stdDeviation="1.25"/>
<feComposite in2="hardAlpha" operator="arithmetic" k2="-1" k3="1"/>
<feColorMatrix type="matrix" values="0 0 0 0 0 0 0 0 0 0 0 0 0 0 0 0 0 0 0.1 0"/>
<feBlend mode="normal" in2="shape" result="effect1_innerShadow_9_27"/>
</filter>
<linearGradient id="paint0_linear_9_27" x1="8.40611" y1="6.55022" x2="82.6419" y2="100" gradientUnits="userSpaceOnUse">
<stop stop-color="#FBFBFC"/>
<stop offset="1" stop-color="#DBDDE8"/>
</linearGradient>
<linearGradient id="paint1_linear_9_27" x1="53.8347" y1="93.8462" x2="39.9491" y2="44.9043" gradientUnits="userSpaceOnUse">
<stop stop-color="#006699"/>
<stop offset="1" stop-color="#058CCF"/>
</linearGradient>
<linearGradient id="paint2_linear_9_27" x1="55" y1="88.9999" x2="20.5" y2="12.9999" gradientUnits="userSpaceOnUse">
<stop stop-color="#006699"/>
<stop offset="1" stop-color="#058CCF"/>
</linearGradient>
</defs>
</svg>

<svg xmlns="http://www.w3.org/2000/svg" width="100" height="100" fill="none" xmlns:v="https://vecta.io/nano"><rect width="100" height="100" rx="30" fill="url(#C)"/><g opacity=".25" filter="url(#A)"><rect x="15.066" y="50" width="68.122" height="42.576" rx="21.288" fill="url(#D)"/></g><rect x="13" y="13" width="73.799" height="73.799" rx="30" fill="url(#E)"/><g filter="url(#B)"><path d="M38.698 67.656V42.923h-8.214v24.734h8.215-.001zm-4.105-28.11c2.864 0 4.647-1.899 4.647-4.273C39.186 32.846 37.456 31 34.647 31S30 32.846 30 35.274c0 2.374 1.782 4.273 4.539 4.273h.053.001zm8.652 28.11h8.213V53.846c0-.738.054-1.478.271-2.006.593-1.477 1.945-3.007 4.215-3.007 2.971 0 4.161 2.268 4.161 5.593v13.23h8.213V53.475c0-7.597-4.052-11.132-9.455-11.132-4.43 0-6.376 2.478-7.457 4.166h.055v-3.586h-8.213c.107 2.32-.001 24.734-.001 24.734v-.001z" fill="#fff"/></g><defs><filter id="A" x="9.606" y="44.54" width="79.042" height="53.496" filterUnits="userSpaceOnUse" color-interpolation-filters="sRGB"><feFlood flood-opacity="0"/><feBlend in="SourceGraphic"/><feGaussianBlur stdDeviation="2.73"/></filter><filter id="B" x="27" y="27" width="45" height="45.5" filterUnits="userSpaceOnUse" color-interpolation-filters="sRGB"><feFlood flood-opacity="0"/><feBlend in="SourceGraphic" result="B"/><feColorMatrix in="SourceAlpha" values="0 0 0 0 0 0 0 0 0 0 0 0 0 0 0 0 0 0 127 0" result="C"/><feOffset dy="0.5"/><feGaussianBlur stdDeviation="1.25"/><feComposite in2="C" operator="arithmetic" k2="-1" k3="1"/><feColorMatrix values="0 0 0 0 0 0 0 0 0 0 0 0 0 0 0 0 0 0 0.1 0"/><feBlend in2="B"/></filter><linearGradient id="C" x1="8.406" y1="6.55" x2="82.642" y2="100" gradientUnits="userSpaceOnUse"><stop stop-color="#fbfbfc"/><stop offset="1" stop-color="#dbdde8"/></linearGradient><linearGradient id="D" x1="53.835" y1="93.846" x2="39.949" y2="44.904" gradientUnits="userSpaceOnUse"><stop stop-color="#069"/><stop offset="1" stop-color="#058ccf"/></linearGradient><linearGradient id="E" x1="55" y1="89" x2="20.5" y2="13" gradientUnits="userSpaceOnUse"><stop stop-color="#069"/><stop offset="1" stop-color="#058ccf"/></linearGradient></defs></svg>
